X:1
T:Joe Derrane's Composition
C:Joe Derrane (presumably)
B:Jerry O'Brien, "Irish Folk Dance Music"
R:hornpipe,barndance
Z:Paul de Grae  irtrad-l 2000-03-14
M:4/4
L:1/8
K:Bm
de \
| fBdf eAce | dGBd cF^Ac | (3B^AB (3dBd (3fdf (3b^gb | afdf a2 de |
| fBdf eAce | dGBd cF^Ac | BfdB AecA | F^Adc B2 ||
|: fg | afdc Bdgb | b2 a2 a2 fa | a2 g2 g2 ga | g2 f2 f2 fg |
| afdc Bdgb | b2 a2 a2 fa | gfge cBcd | (3efe dc d2 :|
K:G
|: Bc \
| dGBd e^GBd | eAce f^A^ce | fBdf gBeg | agec A2 dc |
| BDGB d2 cB | (3ABc AB cAdc | B/c/B/D/GB A/B/A/D/ FA | GB (3AGF G2 :|
|: GF \
| EB,EG B2 EB, | EG B2 B2 AG | FAFE D2 FG | AFDF A2 GF |
| EB,EG B2 EB, | EG B2 B2 AG | F2 ED B2 AF | (3GBG E2 E2 :|
